X:1
T:Abba, 77.75
T:Abba, 77.75
T:Joseph Barnby, 1889
T:Public Domain Courtesy of the Cyber Hymnal™
C:Joseph Barnby, 1889
Z:Public Domain
Z:Courtesy of the Cyber Hymnal™
%%score ( 1 2 ) 3
L:1/8
Q:1/4=110
M:4/4
K:F
V:1 treble 
V:2 treble 
V:3 bass 
V:1
 [CF]2 [FA]2 [EG]2 [FA]2 | [FB]2 [Ec]2 [FA]4 | [FA]2 [Ad]2 [Ac]2 (dc) | [EA]2 [E^G]2 [EA]4 | %4
 [DA]2 d2 [Gd]2 [Gc]2 | [GB]2 [^FA]2 [GB]4 | [EA]2 F2 [FA]2 [EG]2 | F8 |] %8
V:2
 x8 | x8 | x6 G2 | x8 | x2 (E^F) x4 | x8 | x2 F2 x4 | F8 |] %8
V:3
 [F,A,]2 [F,C]2 [B,C]2 [A,C]2 | [G,D]2 [C,C]2 [F,C]4 | [D,D]2 [=B,,F]2 [E,E]2 [E,C]2 | %3
 [E,=B,]2 [E,D]2 [A,^C]4 | [^F,D]2 [D,C]2 [G,B,]2 [C,_E]2 | [D,D]2 [D,D]2 [G,D]4 | %6
 [^C,A,]2 [D,A,]2 [=C,^C]2 [C,B,]2 | [F,A,]8 |] %8

